!!!OTL: 122. Der Noeck (Nix).
!!!ARE: Europa, Mitteleuropa, Deutschland; Sverige
!!!SCT: B0122
!!!TXO: @@SWE
!!!TXL: @@DE
!!!YEM: Copyright 1995, estate of Helmut Schaffrath.
**kern	**text
*ICvox	*
*Ivox	*
*M3/4	*
*clefG2	*
*k[b-e-a-]	*
*c:	*
=1	=1
!LO:TX:a:t=Nicht ʒu langſam.	!
{8.c	Jn
16e-	des
4g	Mee-
4cc	-res
=2	=2
8.dd	tief-
16ee-	-ſten
8cc	Wun-
8cc	-der-
8b	-hal-
8cc}	-len
=3	=3
{8.g	ruht
16g	der
4e-	Nöck
8g	in
8f	kry-
=4	=4
8.d	-ſtall-
16e-	-nem
4c	Saal.
4r}	.
=5	=5
{8.c	Nacht-
16e-	-ge-
4g	-web-
4cc	-te
=6	=6
8.dd	Ne-
16ee-	-bel-
8cc	-ſchlei-
8cc	-er
8b	wal-
8cc}	-len
=7	=7
{8.g	ü-
16g	-ber
4e-	Fluth,
8g	ü-
8f	-ber
=8	=8
8.d	Höh
16e-	und
4c	Thal.
4r}	.
=9	=9
{8.e-	Ringe
16e-	der
8g	Ber-
8g	-ge
8b-/	Häup-
8g	-ter
=10	=10
8f	ra-
8f	-gen
(16gqq	.
8f)	bleich
16e-L	er-
16fJ	.
4g}	-graut,
=11	=11
{8.e-	nah
16e-	und
8g	ſern
8g	kein
8b-/	Säu-
8g	-ſeln,
=12	=12
8f	kei-
8f	-ner
(16gqq	.
8f)	Stim-
16e-L	-me
16fJ	.
4g}	Laut:
=13	=13
{8.e-	ſchau-
16g	-ernd
4f	ringsum
8gL	.
8fJ	.
=14	=14
8.e-	Al-
16d	-les
4c}	ſchweigt,
{4cc	der
=15	=15
8b	Mee-
8cc	-resfürſt
4g	.
4e-	dem
=16	=16
8.g	Mu-
16f	-ſchel-
8.d	-ſchloß
16e-	ent-
4c;}	-ſteigt.
==	==
!!!AGN: Ballade, Romanze
!!!GTL: Balladen und Romanzen
!!!ONB: ESAC (Essen Associative Code) Database: BOEHME
!!!AMT: simple triple
!!!AIN: vox
!!!EED: Helmut Schaffrath
!!!EEV: 1.0
!!@@COMMENT:"Schwedisches Lied, das in Deutschland in dieser Uebersetzung mehrfach verbreitet ist."
!!Wie die kunsfvolle Versform und gewaehlte Sprache bezeugt, ist kein Volkslied, sondern ein neueres Kunstprodukt
!!eines schwedischen Dichters.
!!@@END:
!!!URL-scan: https://archive.org/details/BoehmeVtLieder1895/page/n127/mode/2up
!!!ENC: Anna Maria Matuszewska
!!!EEV: 2024/18/06
*-	*-
